X: 15684
T: Golden Brown Chevette, The
R: reel
M: 4/4
K: Bminor
|:fB B/B/B dBGd|cA A/A/A aAgA|fB B/B/B dBGd|cfec dB B/B/B:|
dBGd BGdB|ecAe cAeA|aAgA fAeA|fAeA dAeA|
dBGd BGdB|ecAe cAeA|aAeA fAdA|cfec dB B/B/B||

